X:1
T:Prélude No. 2 in C Minor
T:from “Das Wohltemperierte Klavier” Book I BWV 847
T:Johann Sebastian Bach (1685 - 1750)
%%score { ( 1 3 4 ) | ( 2 5 6 ) }
L:1/8
M:4/4
K:Eb
V:1 treble nm="Piano"
V:3 treble 
V:4 treble 
V:2 bass 
V:5 bass 
V:6 bass 
V:1
 c/E/D/E/ C/E/D/E/ c/E/D/E/ C/E/D/E/ | A/F/=E/F/ C/F/E/F/ A/F/E/F/ C/F/E/F/ | %2
 =B/F/_E/F/ D/F/E/F/ B/F/E/F/ D/F/E/F/ | c/G/F/G/ E/G/F/G/ c/G/F/G/ E/G/F/G/ | %4
 e/A/G/A/ E/A/G/A/ e/A/G/A/ E/A/G/A/ | d/^F/=E/F/ D/F/E/F/ d/F/E/F/ D/F/E/F/ | %6
 d/G/^F/G/ D/G/F/G/ d/G/F/G/ D/G/F/G/ | c/=E/D/E/ C/E/D/E/ c/E/D/E/ C/E/D/E/ | %8
 c/F/=E/F/ C/F/E/F/ c/F/E/F/ C/F/E/F/ | B/F/_E/F/ D/F/E/F/ B/F/E/F/ D/F/E/F/ | %10
 B/G/F/G/ E/G/F/G/ B/G/F/G/ E/G/F/G/ | A/G/F/G/ E/G/F/G/ A/G/F/G/ E/G/F/G/ | %12
 A/D/C/D/ B,/D/C/D/ A/D/C/D/ B,/D/C/D/ | G/B,/A,/B,/ E/B,/A,/B,/ G/B,/A,/B,/ E/B,/A,/B,/ | %14
 F/C/B,/C/ =A,/C/B,/C/ F/C/B,/C/ A,/C/B,/C/ | F/D/C/D/ =B,/D/C/D/ F/D/C/D/ B,/D/C/D/ | %16
 F/D/C/D/ =B,/D/C/D/ F/D/C/D/ B,/D/C/D/ | E/C/=B,/C/ G,/C/B,/C/ E/C/B,/C/ G,/C/B,/C/ | %18
 F,/E/D/E/ F/E/D/E/ F,/E/D/E/ F/E/D/E/ | ^F,/C/=B,/C/ E/C/B,/C/ F,/C/B,/C/ E/C/B,/C/ | %20
 E/C/=B,/C/ G,/C/B,/C/ E/C/B,/C/ G,/C/B,/C/ | ^F/C/=B,/C/ =A,/C/B,/C/ F/C/B,/C/ A,/C/B,/C/ | %22
 G/C/=B,/C/ D/C/B,/C/ G/C/B,/C/ D/C/B,/C/ | A/C/=B,/C/ D/C/B,/C/ A/C/B,/C/ D/C/B,/C/ | %24
 x3/2[I:staff +1] F,/ A,/F,/=E,/F,/ =B,/F,/D/B,/ A,/F,/=E,/F,/ | %25
[I:staff -1] x3/2[I:staff +1] G,/ C/G,/^F,/G,/[I:staff -1] x2[I:staff +1] C/A,/G,/A,/ | %26
[I:staff -1] x3/2 C/ E/C/=B,/C/ ^F/C/=A/F/ E/C/=B,/C/ | %27
[Q:1/4=145]"^Presto" z/ d/c/d/ e/c/=B/c/ =A/c/B/c/ d/B/A/B/ | %28
 G/=B/=A/B/ c/A/G/A/ ^F/A/G/A/ B/G/F/G/ | D/g/=f/g/ a/f/e/f/ d/f/e/f/ g/e/d/e/ | %30
 c/e/d/e/ f/d/c/d/ =B/d/c/d/ e/c/B/c/ | G/c/=B/c/ A/f/e/f/ G/e/d/e/ F/d/c/d/ | %32
 E/c/=B/c/ A/F/E/F/ G/E/D/E/ F/D/C/D/ | %33
[Q:1/4=20]"^Adagio" =E-!ped!E/4!ped-up![Q:1/4=32]"^32"C/4D/4E/4 F/8G/8A/8B/8c/8B/8A/8G/8F/G/4=E/4 !arpeggio!MF-[Q:1/4=20]"^20"!ped!F/4!ped-up![Q:1/4=32]"^32"G/4F/4=E/4 F/4G/4A/4G/4F/8_E/8D/8E/8F/8D/8E/8F/8 | %34
[Q:1/4=120]"^Allegro"[I:staff +1] =B,>D, F,/A,/G,/F,/ =B,/F,/D/F,/ B,/A,/G,/F,/ | %35
 =E,/_D/_B,/G,/ C/A,/F,/A,/ G,/B,/G,/=E,/ A,/F,/=D,/F,/ | %36
 =E,/G,/E,/C,/ F,/D,/=B,,/D,/[I:staff -1] z z/[I:staff +1] D,/ =E,/G,/_B,/G,/ | %37
 A,/[I:staff -1]C/F/D/ F/A/c/=B/[Q:1/4=100] c/-[Q:1/4=90]G/-[Q:1/4=70]F/-[Q:1/4=50]D/[Q:1/4=25] !fermata!=E2 |] %38
V:2
 C,/G,/F,/G,/ E,/G,/F,/G,/ C,/G,/F,/G,/ E,/G,/F,/G,/ | %1
 C,/A,/G,/A,/ F,/A,/G,/A,/ C,/A,/G,/A,/ F,/A,/G,/A,/ | %2
 C,/A,/G,/A,/ F,/A,/G,/A,/ C,/A,/G,/A,/ F,/A,/G,/A,/ | %3
 C,/E,/D,/E,/ G,/E,/D,/E,/ C,/E,/D,/E,/ G,/E,/D,/E,/ | %4
 C,/C/B,/C/ A,/C/B,/C/ C,/C/B,/C/ A,/C/B,/C/ | %5
 C,/=A,/G,/A,/ ^F,/A,/G,/A,/ C,/A,/G,/A,/ F,/A,/G,/A,/ | %6
 B,,/B,/=A,/B,/ G,/B,/A,/B,/ B,,/B,/A,/B,/ G,/B,/A,/B,/ | %7
 B,,/G,/F,/G,/ =E,/G,/F,/G,/ B,,/G,/F,/G,/ E,/G,/F,/G,/ | %8
 A,,/A,/G,/A,/ F,/A,/G,/A,/ A,,/A,/G,/A,/ F,/A,/G,/A,/ | %9
 A,,/D,/C,/D,/ F,/D,/C,/D,/ A,,/D,/C,/D,/ F,/D,/C,/D,/ | %10
 G,,/E,/D,/E,/ G,/E,/D,/E,/ G,,/E,/D,/E,/ G,/E,/D,/E,/ | %11
 C,/E,/D,/E,/ A,/E,/D,/E,/ C,/E,/D,/E,/ A,/E,/D,/E,/ | %12
 D,/F,/E,/F,/ A,/F,/E,/F,/ D,/F,/E,/F,/ A,/F,/E,/F,/ | %13
 E,/G,/F,/G,/ A,/G,/F,/G,/ E,/G,/F,/G,/ A,/G,/F,/G,/ | %14
 E,/=A,/G,/A,/ F,/A,/G,/A,/ E,/A,/G,/A,/ F,/A,/G,/A,/ | %15
 D,/F,/E,/F,/ _A,/F,/E,/F,/ D,/F,/E,/F,/ A,/F,/E,/F,/ | %16
 C,/F,/=E,/F,/ A,/F,/E,/F,/ C,/F,/E,/F,/ A,/F,/E,/F,/ | %17
 C,/_E,/D,/E,/ F,/E,/D,/E,/ _B,,/E,/D,/E,/ F,/E,/D,/E,/ | %18
 A,,/C,/=B,,/C,/ D,/C,/B,,/C,/ A,,/C,/B,,/C,/ D,/C,/B,,/C,/ | %19
 =A,,/E,/D,/E,/ C,/E,/D,/E,/ A,,/E,/D,/E,/ C,/E,/D,/E,/ | %20
 G,,/E,/D,/E,/ F,/E,/D,/E,/ G,,/E,/D,/E,/ F,/E,/D,/E,/ | %21
 G,,/E,/D,/E,/ C,/E,/D,/E,/ G,,/E,/D,/E,/ C,/E,/D,/E,/ | %22
 G,,/E,/D,/E,/ F,/E,/D,/E,/ G,,/E,/D,/E,/ F,/E,/D,/E,/ | %23
 G,,/E,/D,/E,/ F,/E,/D,/E,/ G,,/E,/D,/E,/ F,/E,/D,/E,/ | G,,/=B,,/D,/ x/ x2 x4 | %25
 G,,/C,/E,/ x/ x2[I:staff -1] E/C/G/E/[I:staff +1] x2 | G,,/=A,,/^F,/ x/ x2 x4 | G,,8- | %28
 G,,/D/C/D/ E/C/=B,/C/ =A,/C/B,/C/ D/B,/A,/B,/ | %29
 G,/=B,/=A,/B,/ C/_A,/G,/A,/ F,/=A,/G,/A,/ B,/G,/F,/G,/ | %30
 E,/[I:staff -1]=G/F/G/ A/F/E/F/ D/F/E/F/ G/E/D/E/ | %31
 C/E/D/E/ F/D/C/D/ E/C/=B,/C/ D/[I:staff +1]=B,/=A,/B,/ | %32
 C/E/D/E/ F,/D/C/D/ E,/C/=B,/C/ D,/B,/=A,/B,/ | !arpeggio!_B,2 z2 A,2 z2 |z/x/=B,,- B,,2- B,,4 | %35
 x8 | x4 z/ G,,/C,- C,2- | C,8 |] %38
V:3
 x8 | x8 | x8 | x8 | x8 | x8 | x8 | x8 | x8 | x8 | x8 | x8 | x8 | x8 | x8 | x8 | x8 | x8 | x8 | %19
 x8 | x8 | x8 | x8 | x8 | x8 | x8 | x8 | x8 | x8 | x8 | x8 | x8 | x8 | C2 x2 C2 x2 | x8 | x8 | x8 | %37
 x8 |] %38
V:4
 x8 | x8 | x8 | x8 | x8 | x8 | x8 | x8 | x8 | x8 | x8 | x8 | x8 | x8 | x8 | x8 | x8 | x8 | x8 | %19
 x8 | x8 | x8 | x8 | x8 | x8 | x8 | x8 | x8 | x8 | x8 | x8 | x8 | x8 | %33
 !arpeggio!x/4- x3/4 x x2 !arpeggio!x/8- x/8 x3/4- x3 | x8 | x8 | x8 | x8 |] %38
V:5
 x8 | x8 | x8 | x8 | x8 | x8 | x8 | x8 | x8 | x8 | x8 | x8 | x8 | x8 | x8 | x8 | x8 | x8 | x8 | %19
 x8 | x8 | x8 | x8 | x8 | x8 | x8 | x8 | x8 | x8 | x8 | x8 | x8 | x8 | C,2 z2 C,2 z2 | %34
 x/ C,,3/2- C,,2- C,,4 | x8 | x4 C,,4- | C,,8 |] %38
V:6
 x8 | x8 | x8 | x8 | x8 | x8 | x8 | x8 | x8 | x8 | x8 | x8 | x8 | x8 | x8 | x8 | x8 | x8 | x8 | %19
 x8 | x8 | x8 | x8 | x8 | x8 | x8 | x8 | x8 | x8 | x8 | x8 | x8 | x8 | G,2 x2 F,2 x2 | x8 | x8 | %36
 x8 | x8 |] %38

